X:1
T:Peadar O'Loughlin's
M:4/4
R:Reel
K:D
|:(3ABA FB ABde|fgec d2cd|BE (3EFE GFGB|AF (3FGF DFBF|
(3ABA FB ABde|fgec d2cd|BA^GB ABde|faeg fdd2:||
|:fdad bdaf|dfaf fede|fbbf b3a|fbba feeg|
fd (3ded bdfe|dfaf fedB|BA^GB ABde|faeg fdd2:||
